resources/icons/20px/globe-network.svg

<svg xmlns="http://www.w3.org/2000/svg" viewBox="0 0 20 20">
  <path d="M10 0C4.48 0 0 4.48 0 10s4.48 10 10 10 10-4.48 10-10S15.52 0 10 0m7.39 7h-3.63c-.31-1.99-.92-3.66-1.72-4.73 2.45.65 4.41 2.42 5.35 4.73M13 10c0 .69-.04 1.36-.11 2H7.11a18.4 18.4 0 0 1 0-4h5.77c.08.64.12 1.31.12 2m-3-8c1.07 0 2.25 2.05 2.75 5h-5.5c.5-2.95 1.68-5 2.75-5m-2.04.27C7.16 3.34 6.55 5.01 6.24 7H2.61c.94-2.31 2.9-4.08 5.35-4.73M2 10c0-.69.11-1.36.28-2h3.83a18.4 18.4 0 0 0 0 4H2.28c-.17-.64-.28-1.31-.28-2m.61 3h3.63c.31 1.99.92 3.66 1.72 4.73A8 8 0 0 1 2.61 13M10 18c-1.07 0-2.25-2.05-2.75-5h5.5c-.5 2.95-1.68 5-2.75 5m2.04-.27c.79-1.07 1.4-2.74 1.72-4.73h3.63a8 8 0 0 1-5.35 4.73M13.89 12a18.4 18.4 0 0 0 0-4h3.83c.17.64.28 1.31.28 2s-.11 1.36-.28 2z"/>
</svg>

<?xml version="1.0" encoding="UTF-8"?>
<svg width="20px" height="20px" viewBox="0 0 20 20" version="1.1" xmlns="http://www.w3.org/2000/svg" xmlns:xlink="http://www.w3.org/1999/xlink">
    <!-- Generator: Sketch 50.2 (55047) - http://www.bohemiancoding.com/sketch -->
    <title>pt-icon-globe-network</title>
    <desc>Created with Sketch.</desc>
    <defs></defs>
    <g id="Page-1" stroke="none" stroke-width="1" fill="none" fill-rule="evenodd">
        <g id="pt-icon-globe-network" fill="#000000" fill-rule="nonzero">
            <path d="M10,0 C4.48,0 0,4.48 0,10 C0,15.52 4.48,20 10,20 C15.52,20 20,15.52 20,10 C20,4.48 15.52,0 10,0 Z M17.39,7 L13.76,7 C13.45,5.01 12.84,3.34 12.04,2.27 C14.49,2.92 16.45,4.69 17.39,7 Z M13,10 C13,10.69 12.96,11.36 12.89,12 L7.11,12 C7.04,11.36 7,10.69 7,10 C7,9.31 7.04,8.64 7.11,8 L12.88,8 C12.96,8.64 13,9.31 13,10 Z M10,2 C11.07,2 12.25,4.05 12.75,7 L7.25,7 C7.75,4.05 8.93,2 10,2 Z M7.96,2.27 C7.16,3.34 6.55,5.01 6.24,7 L2.61,7 C3.55,4.69 5.51,2.92 7.96,2.27 Z M2,10 C2,9.31 2.11,8.64 2.28,8 L6.11,8 C6.04,8.64 6,9.31 6,10 C6,10.69 6.04,11.36 6.11,12 L2.28,12 C2.11,11.36 2,10.69 2,10 Z M2.61,13 L6.24,13 C6.55,14.99 7.16,16.66 7.96,17.73 C5.51,17.08 3.55,15.31 2.61,13 Z M10,18 C8.93,18 7.75,15.95 7.25,13 L12.75,13 C12.25,15.95 11.07,18 10,18 Z M12.04,17.73 C12.83,16.66 13.44,14.99 13.76,13 L17.39,13 C16.45,15.31 14.49,17.08 12.04,17.73 Z M13.89,12 C13.96,11.36 14,10.69 14,10 C14,9.31 13.96,8.64 13.89,8 L17.72,8 C17.89,8.64 18,9.31 18,10 C18,10.69 17.89,11.36 17.72,12 L13.89,12 Z" id="Shape"></path>
        </g>
    </g>
</svg>
